**kern	**silbe	**kern	**silbe	**harmony	**phrase	**leadinstrument	**rhyme	**timestamp	**harte
*ICvox	*	*ICvox	*	*M4/4	*	*	*	*	*M4/4
*VRlead	*	*VRharmonize	*	*	*	*	*	*	*
*Hstimme	*	*Nstimme	*	*	*	*	*	*	*
*G:	*	*G:	*	*G:	*	*	*	*	*G:
*M4/4	*	*M4/4	*	*	*	*	*	*	*
*clefG2	*	*clefG2	*	*	*	*	*	*	*
r;	.	r;	.	1r;	.	r	.	0	N.C.
=1	=1	=1	=1	=1	=1	=1	=1	=1	=1
*>Letter>A	*>Letter>A	*>Letter>A	*>Letter>A	*>Letter>A	*>Letter>A	*>Letter>A	*>Letter>A	*>Letter>A	*>Letter>A
*>Label>Intro	*>Label>Intro	*>Label>Intro	*>Label>Intro	*>Label>Intro	*>Label>Intro	*>Label>Intro	*>Label>Intro	*>Label>Intro	*>Label>Intro
2r	.	2r	.	1DMm;	newline	r	.	0.571	D:sus4(b7)
8r	.	2r	.	.	.	.	.	.	.
8B	It's	.	.	.	.	.	.	.	.
8c	been	.	.	.	.	.	.	.	.
8B	a	.	.	.	.	.	.	.	.
=2	=2	=2	=2	=2	=2	=2	=2	=2	=2
*>Letter>B	*>Letter>B	*>Letter>B	*>Letter>B	*>Letter>B	*>Letter>B	*>Letter>B	*>Letter>B	*>Letter>B	*>Letter>B
*>Label>Chorus	*>Label>Chorus	*>Label>Chorus	*>Label>Chorus	*>Label>Chorus	*>Label>Chorus	*>Label>Chorus	*>Label>Chorus	*>Label>Chorus	*>Label>Chorus
2d	hard	1r	.	2GM	newline	voice	.	3.82	G:maj
4.d	day's	.	.	2CM	.	voice	.	4.671	C:maj
[8d	night	.	.	.	.	.	A	.	.
=3	=3	=3	=3	=3	=3	=3	=3	=3	=3
8d]	_	1r	.	1GM	.	voice	.	5.522	G:maj
2r	.	.	.	.	.	.	.	.	.
8d	and	.	.	.	.	.	.	.	.
8d	I've	.	.	.	.	.	.	.	.
8c	been	.	.	.	.	.	.	.	.
=4	=4	=4	=4	=4	=4	=4	=4	=4	=4
8d	work-	1r	.	1FM	.	voice	.	7.224	F:maj
2f	-in'	.	.	.	.	.	.	.	.
8d	like	.	.	.	.	.	.	.	.
8c	a	.	.	.	.	.	.	.	.
16d	dog	.	.	.	.	.	B	.	.
16c	_	.	.	.	.	.	.	.	.
=5	=5	=5	=5	=5	=5	=5	=5	=5	=5
4B	_	1r	.	1GM	.	voice	.	8.926	G:maj
4.r	.	.	.	.	.	.	.	.	.
8B	It's	.	.	.	.	.	.	.	.
8c	been	.	.	.	.	.	.	.	.
8B	a	.	.	.	.	.	.	.	.
=6	=6	=6	=6	=6	=6	=6	=6	=6	=6
2d	hard	1r	.	2GM	newline	voice	.	10.628	G:maj
4.d	day's	.	.	2CM	.	voice	.	11.485	C:maj
[8d	night	.	.	.	.	.	A	.	.
=7	=7	=7	=7	=7	=7	=7	=7	=7	=7
8d]	_	1r	.	1GM	.	voice	.	12.342	G:maj
2r	.	.	.	.	.	.	.	.	.
8c	I	.	.	.	.	.	.	.	.
8d	should	.	.	.	.	.	.	.	.
8c	be	.	.	.	.	.	.	.	.
=8	=8	=8	=8	=8	=8	=8	=8	=8	=8
8d	slee-	1r	.	1FM	.	voice	.	14.056	F:maj
2f	-pin'	.	.	.	.	.	.	.	.
8d	like	.	.	.	.	.	.	.	.
8c	a	.	.	.	.	.	.	.	.
16d	log	.	.	.	.	.	B	.	.
16c	_	.	.	.	.	.	.	.	.
=9	=9	=9	=9	=9	=9	=9	=9	=9	=9
4B	_	2r	.	1GM	.	voice	.	15.77	G:maj
4.r	.	.	.	.	.	.	.	.	.
.	.	8r	.	.	.	.	.	.	.
8e	But	8c	But	.	.	.	.	.	.
8f	when	8d	when	.	.	.	.	.	.
8f#	I	8d#	I	.	.	.	.	.	.
=10	=10	=10	=10	=10	=10	=10	=10	=10	=10
8g	get	8e	get	1CM	newline	voice	.	17.484	C:maj
8f#	home	8d#	home	.	.	.	.	.	.
8f	to	8d	to	.	.	.	.	.	.
8e	you	8c	you	.	.	.	C	.	.
8r	.	8r	.	.	.	.	.	.	.
8g	I	8e	I	.	.	.	.	.	.
8g	find	8e	find	.	.	.	.	.	.
8g#	the	8e#	the	.	.	.	.	.	.
=11	=11	=11	=11	=11	=11	=11	=11	=11	=11
8a	things	8f#	things	1DM	.	voice	.	19.21	D:maj
8a-	that	8f	that	.	.	.	.	.	.
8g	you	8e	you	.	.	.	C	.	.
8f#	do	8d	do	.	.	.	C	.	.
8r	.	2r	.	.	.	.	.	.	.
8B	will	.	.	.	.	.	.	.	.
8c	make	.	.	.	.	.	.	.	.
8B	me	.	.	.	.	.	.	.	.
=12	=12	=12	=12	=12	=12	=12	=12	=12	=12
8d	feel	1r	.	2GM	.	voice	.	20.936	G:maj
4.G	_	.	.	.	.	.	.	.	.
8B-	al-	.	.	2CM	.	voice	.	21.799	C:maj
4c	_	.	.	.	.	.	.	.	.
[8B-	-right	.	.	.	.	.	A	.	.
=13	=13	=13	=13	=13	=13	=13	=13	=13	=13
8B-]	_	1r	.	1GM	.	voice	.	22.662	G:maj
2r	.	.	.	.	.	.	.	.	.
8B	You	.	.	.	.	.	.	.	.
8c	know	.	.	.	.	.	.	.	.
8B	I	.	.	.	.	.	.	.	.
=14	=14	=14	=14	=14	=14	=14	=14	=14	=14
*>Letter>B	*>Letter>B	*>Letter>B	*>Letter>B	*>Letter>B	*>Letter>B	*>Letter>B	*>Letter>B	*>Letter>B	*>Letter>B
*>Label>Verse	*>Label>Verse	*>Label>Verse	*>Label>Verse	*>Label>Verse	*>Label>Verse	*>Label>Verse	*>Label>Verse	*>Label>Verse	*>Label>Verse
2d	work	1r	.	2GM	newline	voice	.	24.388	G:maj
4.d	all	.	.	2CM	.	voice	.	25.244	C:maj
[8d	day	.	.	.	.	.	D	.	.
=15	=15	=15	=15	=15	=15	=15	=15	=15	=15
4d]	_	1r	.	1GM	.	voice	.	26.1	G:maj
4.r	.	.	.	.	.	.	.	.	.
8d	to	.	.	.	.	.	.	.	.
8d	get	.	.	.	.	.	.	.	.
8c	you	.	.	.	.	.	.	.	.
=16	=16	=16	=16	=16	=16	=16	=16	=16	=16
8d	mo-	1r	.	1FM	.	voice	.	27.813	F:maj
2f	-ney	.	.	.	.	.	.	.	.
8d	to	.	.	.	.	.	.	.	.
8d	buy	.	.	.	.	.	.	.	.
8c	you	.	.	.	.	.	.	.	.
=17	=17	=17	=17	=17	=17	=17	=17	=17	=17
16d	things	1r	.	1GM	.	voice	E	29.525	G:maj
16c	_	.	.	.	.	.	.	.	.
8B	_	.	.	.	.	.	.	.	.
2r	.	.	.	.	.	.	.	.	.
8c	And	.	.	.	.	.	.	.	.
8B	it's	.	.	.	.	.	.	.	.
=18	=18	=18	=18	=18	=18	=18	=18	=18	=18
8d	worth	1r	.	2GM	newline	voice	.	31.237	G:maj
8d	it	.	.	.	.	.	.	.	.
8d	just	.	.	.	.	.	.	.	.
8d	to	.	.	.	.	.	.	.	.
8d	hear	.	.	2CM	.	voice	.	32.099	C:maj
4d	you	.	.	.	.	.	.	.	.
[8d	say	.	.	.	.	.	D	.	.
=19	=19	=19	=19	=19	=19	=19	=19	=19	=19
8d]	_	1r	.	1GM	.	voice	.	32.96	G:maj
2r	.	.	.	.	.	.	.	.	.
8c	You're	.	.	.	.	.	.	.	.
8d	go-	.	.	.	.	.	.	.	.
8c	-nna	.	.	.	.	.	.	.	.
=20	=20	=20	=20	=20	=20	=20	=20	=20	=20
8d	give	1r	.	1FM	.	voice	.	34.682	F:maj
2f	me	.	.	.	.	.	.	.	.
8d	ev-	.	.	.	.	.	.	.	.
8c	-ery-	.	.	.	.	.	.	.	.
16d	-thing	.	.	.	.	.	E	.	.
16c	_	.	.	.	.	.	.	.	.
=21	=21	=21	=21	=21	=21	=21	=21	=21	=21
4B	_	2r	.	1GM	.	voice	.	36.405	G:maj
4.r	.	.	.	.	.	.	.	.	.
.	.	8r	.	.	.	.	.	.	.
8e	So	8c	So	.	.	.	.	.	.
8f	why	8d	why	.	.	.	.	.	.
8f#	on	8d#	on	.	.	.	.	.	.
=22	=22	=22	=22	=22	=22	=22	=22	=22	=22
8g	earth	8e	earth	1CM	newline	voice	.	38.127	C:maj
8f#	should	8d#	should	.	.	.	.	.	.
8f	I	8d	I	.	.	.	.	.	.
8e	moan	8c	moan	.	.	.	F	.	.
8r	.	8r	.	.	.	.	.	.	.
8g	'cause	8e	'cause	.	.	.	.	.	.
8g	when	8e	when	.	.	.	.	.	.
8g#	I	8e#	I	.	.	.	.	.	.
=23	=23	=23	=23	=23	=23	=23	=23	=23	=23
8a	get	8f#	get	1DM	.	voice	.	39.861	D:maj
8a-	you	8f	you	.	.	.	.	.	.
8g	a-	8e	a-	.	.	.	.	.	.
8f#	-lone	8d	-lone	.	.	.	F	.	.
8r	.	2r	.	.	.	.	.	.	.
8B	You	.	.	.	.	.	.	.	.
8c	know	.	.	.	.	.	.	.	.
8B	I	.	.	.	.	.	.	.	.
=24	=24	=24	=24	=24	=24	=24	=24	=24	=24
8d	feel	1r	.	2GM	.	voice	.	41.594	G:maj
4.G	_	.	.	.	.	.	.	.	.
8B-	o-	.	.	2CM	.	voice	.	42.461	C:maj
4c	_	.	.	.	.	.	.	.	.
[8B-	-kay	.	.	.	.	.	D	.	.
=25	=25	=25	=25	=25	=25	=25	=25	=25	=25
4B-]	_	1r	.	1GM	.	voice	.	43.328	G:maj
4r	.	.	.	.	.	.	.	.	.
8d	When	.	.	.	.	.	.	.	.
4g	I'm	.	.	.	.	.	.	.	.
[8f#	home	.	.	.	.	.	F	.	.
=26	=26	=26	=26	=26	=26	=26	=26	=26	=26
*>Letter>C	*>Letter>C	*>Letter>C	*>Letter>C	*>Letter>C	*>Letter>C	*>Letter>C	*>Letter>C	*>Letter>C	*>Letter>C
*>Label>Bridge	*>Label>Bridge	*>Label>Bridge	*>Label>Bridge	*>Label>Bridge	*>Label>Bridge	*>Label>Bridge	*>Label>Bridge	*>Label>Bridge	*>Label>Bridge
2.f#]	_	1r	.	1Bm	newline	voice	.	45.061	B:min
4r	.	.	.	.	.	.	.	.	.
=27	=27	=27	=27	=27	=27	=27	=27	=27	=27
8g	ev-	1r	.	1Em	.	voice	.	46.811	E:min
8f#	-ery-	.	.	.	.	.	.	.	.
8e	-thing	.	.	.	.	.	.	.	.
4e	seems	.	.	.	.	.	.	.	.
8f#	to	.	.	.	.	.	.	.	.
8g	be	.	.	.	.	.	.	.	.
8e	_	.	.	.	.	.	.	.	.
=28	=28	=28	=28	=28	=28	=28	=28	=28	=28
4.f#	right	1r	.	1Bm	.	voice	A	48.56	B:min
4.r	.	.	.	.	.	.	.	.	.
4r	.	.	.	.	.	.	.	.	.
=29	=29	=29	=29	=29	=29	=29	=29	=29	=29
2r	.	1r	.	1Bm	.	voice	.	50.31	B:min
8d	When	.	.	.	.	.	.	.	.
4f#	I'm	.	.	.	.	.	.	.	.
[8g	home	.	.	.	.	.	F	.	.
=30	=30	=30	=30	=30	=30	=30	=30	=30	=30
2g]	_	1r	.	1GM	newline	voice	.	52.059	G:maj
2r	.	.	.	.	.	.	.	.	.
=31	=31	=31	=31	=31	=31	=31	=31	=31	=31
8g	feel-	1r	.	1Em	.	voice	.	53.783	E:min
8f#	-ing	.	.	.	.	.	.	.	.
8e	you	.	.	.	.	.	.	.	.
4e	hol-	.	.	.	.	.	.	.	.
8f#	-ding	.	.	.	.	.	.	.	.
4g	me	.	.	.	.	.	.	.	.
=32	=32	=32	=32	=32	=32	=32	=32	=32	=32
2a	tight	1r	.	1CM	.	voice	A	55.507	C:maj
4.r	.	.	.	.	.	.	.	.	.
[8a	tight	.	.	.	.	.	A	.	.
=33	=33	=33	=33	=33	=33	=33	=33	=33	=33
4.a]	_	1r	.	1DM	.	voice	.	57.231	D:maj
4a	yeah	.	.	.	.	.	.	.	.
8B	It's	.	.	.	.	.	.	.	.
8c	been	.	.	.	.	.	.	.	.
8B	a	.	.	.	.	.	.	.	.
=34	=34	=34	=34	=34	=34	=34	=34	=34	=34
*>Letter>B	*>Letter>B	*>Letter>B	*>Letter>B	*>Letter>B	*>Letter>B	*>Letter>B	*>Letter>B	*>Letter>B	*>Letter>B
*>Label>Chorus	*>Label>Chorus	*>Label>Chorus	*>Label>Chorus	*>Label>Chorus	*>Label>Chorus	*>Label>Chorus	*>Label>Chorus	*>Label>Chorus	*>Label>Chorus
2d	hard	1r	.	2GM	newline	voice	.	58.955	G:maj
4.d	day's	.	.	2CM	.	voice	.	59.827	C:maj
[8d	night	.	.	.	.	.	A	.	.
=35	=35	=35	=35	=35	=35	=35	=35	=35	=35
8d]	_	1r	.	1GM	.	voice	.	60.698	G:maj
2r	.	.	.	.	.	.	.	.	.
8c	and	.	.	.	.	.	.	.	.
8d	I've	.	.	.	.	.	.	.	.
8c	been	.	.	.	.	.	.	.	.
=36	=36	=36	=36	=36	=36	=36	=36	=36	=36
8d	work-	1r	.	1FM	.	voice	.	62.441	F:maj
2f	-in'	.	.	.	.	.	.	.	.
8d	like	.	.	.	.	.	.	.	.
8c	a	.	.	.	.	.	.	.	.
16d	dog	.	.	.	.	.	B	.	.
16c	_	.	.	.	.	.	.	.	.
=37	=37	=37	=37	=37	=37	=37	=37	=37	=37
4B	_	1r	.	1GM	.	voice	.	64.184	G:maj
4.r	.	.	.	.	.	.	.	.	.
8B	It's	.	.	.	.	.	.	.	.
8c	been	.	.	.	.	.	.	.	.
8B	a	.	.	.	.	.	.	.	.
=38	=38	=38	=38	=38	=38	=38	=38	=38	=38
2d	hard	1r	.	2GM	newline	voice	.	65.927	G:maj
4.d	day's	.	.	2CM	.	voice	.	66.798	C:maj
[8d	night	.	.	.	.	.	A	.	.
=39	=39	=39	=39	=39	=39	=39	=39	=39	=39
8d]	_	1r	.	1GM	.	voice	.	67.669	G:maj
2r	.	.	.	.	.	.	.	.	.
8c	I	.	.	.	.	.	.	.	.
8d	should	.	.	.	.	.	.	.	.
8c	be	.	.	.	.	.	.	.	.
=40	=40	=40	=40	=40	=40	=40	=40	=40	=40
8d	slee-	1r	.	1FM	.	voice	.	69.412	F:maj
2f	-pin'	.	.	.	.	.	.	.	.
8d	like	.	.	.	.	.	.	.	.
8c	a	.	.	.	.	.	.	.	.
16d	log	.	.	.	.	.	B	.	.
16c	_	.	.	.	.	.	.	.	.
=41	=41	=41	=41	=41	=41	=41	=41	=41	=41
4B	_	2r	.	1GM	.	voice	.	71.155	G:maj
4.r	.	.	.	.	.	.	.	.	.
.	.	8r	.	.	.	.	.	.	.
8e	But	8c	But	.	.	.	.	.	.
8f	when	8d	when	.	.	.	.	.	.
8f#	I	8d#	I	.	.	.	.	.	.
=42	=42	=42	=42	=42	=42	=42	=42	=42	=42
8g	get	8e	get	1CM	newline	voice	.	72.898	C:maj
8f#	home	8d#	home	.	.	.	F	.	.
8f	to	8d	to	.	.	.	C	.	.
8e	you	8c	you	.	.	.	C	.	.
8r	.	8r	.	.	.	.	.	.	.
8g	I	8e	I	.	.	.	.	.	.
8g	find	8e	find	.	.	.	.	.	.
8g#	the	8e#	the	.	.	.	.	.	.
=43	=43	=43	=43	=43	=43	=43	=43	=43	=43
8a	things	8f#	things	1DM	.	voice	.	74.645	D:maj
8a-	that	8f	that	.	.	.	.	.	.
8g	you	8e	you	.	.	.	C	.	.
8f#	do	8d	do	.	.	.	C	.	.
8r	.	2r	.	.	.	.	.	.	.
8B	will	.	.	.	.	.	.	.	.
8c	make	.	.	.	.	.	.	.	.
8B	me	.	.	.	.	.	.	.	.
=44	=44	=44	=44	=44	=44	=44	=44	=44	=44
8d	feel	1r	.	2GM	.	voice	.	76.392	G:maj
4.G	_	.	.	.	.	.	.	.	.
8B-	al-	.	.	2CM	.	voice	.	77.265	C:maj
4c	_	.	.	.	.	.	.	.	.
[8B-	-right	.	.	.	.	.	A	.	.
=45	=45	=45	=45	=45	=45	=45	=45	=45	=45
8B-]	_	1r	.	1GM	.	voice	.	78.139	G:maj
2..r	.	.	.	.	.	.	.	.	.
=46	=46	=46	=46	=46	=46	=46	=46	=46	=46
*>Letter>B	*>Letter>B	*>Letter>B	*>Letter>B	*>Letter>B	*>Letter>B	*>Letter>B	*>Letter>B	*>Letter>B	*>Letter>B
*>Label>Solo	*>Label>Solo	*>Label>Solo	*>Label>Solo	*>Label>Solo	*>Label>Solo	*>Label>Solo	*>Label>Solo	*>Label>Solo	*>Label>Solo
1r	.	1r	.	2GM	newline	guitar	.	79.886	G:maj
.	.	.	.	2CM	.	guitar	.	80.755	C:maj
=47	=47	=47	=47	=47	=47	=47	=47	=47	=47
1r	.	1r	.	1GM	.	guitar	.	81.624	G:maj
=48	=48	=48	=48	=48	=48	=48	=48	=48	=48
1r	.	1r	.	1FM	.	guitar	.	83.363	F:maj
=49	=49	=49	=49	=49	=49	=49	=49	=49	=49
1r	.	1r	.	1GM	.	guitar	.	85.102	G:maj
=50	=50	=50	=50	=50	=50	=50	=50	=50	=50
1r	.	1r	.	2GM	newline	guitar	.	86.841	G:maj
.	.	.	.	2CM	.	guitar	.	87.718	C:maj
=51	=51	=51	=51	=51	=51	=51	=51	=51	=51
1r	.	1r	.	1GM	.	guitar	.	88.596	G:maj
=52	=52	=52	=52	=52	=52	=52	=52	=52	=52
1r	.	1r	.	1FM	.	guitar	.	90.351	F:maj
=53	=53	=53	=53	=53	=53	=53	=53	=53	=53
2r	.	2r	.	1GM	.	guitar	.	92.106	G:maj
8r	.	8r	.	.	.	.	.	.	.
8e	So	8c	So	.	.	.	.	.	.
8f	why	8d	why	.	.	.	.	.	.
8f#	on	8d#	on	.	.	.	.	.	.
=54	=54	=54	=54	=54	=54	=54	=54	=54	=54
8g	earth	8e	earth	1CM	newline	voice	.	93.861	C:maj
8f#	should	8d#	should	.	.	.	.	.	.
8f	I	8d	I	.	.	.	.	.	.
8e	moan	8c	moan	.	.	.	F	.	.
8r	.	8r	.	.	.	.	.	.	.
8g	'cause	8e	'cause	.	.	.	.	.	.
8g	when	8e	when	.	.	.	.	.	.
8g#	I	8e#	I	.	.	.	.	.	.
=55	=55	=55	=55	=55	=55	=55	=55	=55	=55
8a	get	8f#	get	1DM	.	voice	.	95.607	D:maj
8a-	you	8f	you	.	.	.	.	.	.
8g	a-	8e	a-	.	.	.	.	.	.
8f#	-lone	8d	-lone	.	.	.	F	.	.
8r	.	2r	.	.	.	.	.	.	.
8B	You	.	.	.	.	.	.	.	.
8c	know	.	.	.	.	.	.	.	.
8B	I	.	.	.	.	.	.	.	.
=56	=56	=56	=56	=56	=56	=56	=56	=56	=56
8d	feel	1r	.	2GM	.	voice	.	97.352	G:maj
4.G	_	.	.	.	.	.	.	.	.
8B-	o-	.	.	2CM	.	voice	.	98.225	C:maj
4c	_	.	.	.	.	.	.	.	.
[8B-	-kay	.	.	.	.	.	E	.	.
=57	=57	=57	=57	=57	=57	=57	=57	=57	=57
8B-]	_	1r	.	1GM	.	voice	.	99.097	G:maj
4.r	.	.	.	.	.	.	.	.	.
8d	When	.	.	.	.	.	.	.	.
4g	I'm	.	.	.	.	.	.	.	.
[8f#	home	.	.	.	.	.	F	.	.
=58	=58	=58	=58	=58	=58	=58	=58	=58	=58
*>Letter>C	*>Letter>C	*>Letter>C	*>Letter>C	*>Letter>C	*>Letter>C	*>Letter>C	*>Letter>C	*>Letter>C	*>Letter>C
*>Label>Bridge	*>Label>Bridge	*>Label>Bridge	*>Label>Bridge	*>Label>Bridge	*>Label>Bridge	*>Label>Bridge	*>Label>Bridge	*>Label>Bridge	*>Label>Bridge
2.f#]	_	1r	.	1Bm	newline	voice	.	100.843	B:min
4r	.	.	.	.	.	.	.	.	.
=59	=59	=59	=59	=59	=59	=59	=59	=59	=59
8g	ev-	1r	.	1Em	.	voice	.	102.571	E:min
8f#	-ery-	.	.	.	.	.	.	.	.
8e	-thing	.	.	.	.	.	.	.	.
4e	seems	.	.	.	.	.	.	.	.
8f#	to	.	.	.	.	.	.	.	.
8g	be	.	.	.	.	.	.	.	.
8e	_	.	.	.	.	.	.	.	.
=60	=60	=60	=60	=60	=60	=60	=60	=60	=60
4.f#	right	1r	.	1Bm	.	voice	A	104.299	B:min
4.d	_	.	.	.	.	.	.	.	.
4r	.	.	.	.	.	.	.	.	.
=61	=61	=61	=61	=61	=61	=61	=61	=61	=61
2r	.	1r	.	1Bm	.	voice	.	106.027	B:min
8d	When	.	.	.	.	.	.	.	.
4f#	I'm	.	.	.	.	.	.	.	.
[8g	home	.	.	.	.	.	F	.	.
=62	=62	=62	=62	=62	=62	=62	=62	=62	=62
2.g]	_	1r	.	1GM	newline	voice	.	107.755	G:maj
4r	.	.	.	.	.	.	.	.	.
=63	=63	=63	=63	=63	=63	=63	=63	=63	=63
8g	fee-	1r	.	1Em	.	voice	.	109.493	E:min
8f#	-ling	.	.	.	.	.	.	.	.
8e	you	.	.	.	.	.	.	.	.
4e	hol-	.	.	.	.	.	.	.	.
8f#	-ding	.	.	.	.	.	.	.	.
4g	me	.	.	.	.	.	.	.	.
=64	=64	=64	=64	=64	=64	=64	=64	=64	=64
2a	tight	1r	.	1CM	.	voice	A	111.231	C:maj
4.r	.	.	.	.	.	.	.	.	.
[8a	tight	.	.	.	.	.	A	.	.
=65	=65	=65	=65	=65	=65	=65	=65	=65	=65
4.a]	_	1r	.	1DM	.	voice	.	112.969	D:maj
4a	yeah	.	.	.	.	.	.	.	.
8B	It's	.	.	.	.	.	.	.	.
8c	been	.	.	.	.	.	.	.	.
8B	a	.	.	.	.	.	.	.	.
=66	=66	=66	=66	=66	=66	=66	=66	=66	=66
*>Letter>B2	*>Letter>B2	*>Letter>B2	*>Letter>B2	*>Letter>B2	*>Letter>B2	*>Letter>B2	*>Letter>B2	*>Letter>B2	*>Letter>B2
*>Label>Chorus	*>Label>Chorus	*>Label>Chorus	*>Label>Chorus	*>Label>Chorus	*>Label>Chorus	*>Label>Chorus	*>Label>Chorus	*>Label>Chorus	*>Label>Chorus
2d	hard	1r	.	2GM	newline	voice	.	114.707	G:maj
4.d	day's	.	.	2CM	.	voice	.	115.583	C:maj
[8d	night	.	.	.	.	.	A	.	.
=67	=67	=67	=67	=67	=67	=67	=67	=67	=67
8d]	_	1r	.	1GM	.	voice	.	116.459	G:maj
2r	.	.	.	.	.	.	.	.	.
8c	and	.	.	.	.	.	.	.	.
8d	I've	.	.	.	.	.	.	.	.
8c	been	.	.	.	.	.	.	.	.
=68	=68	=68	=68	=68	=68	=68	=68	=68	=68
8d	work-	1r	.	1FM	.	voice	.	118.211	F:maj
2f	-in'	.	.	.	.	.	.	.	.
8d	like	.	.	.	.	.	.	.	.
8c	a	.	.	.	.	.	.	.	.
16d	dog	.	.	.	.	.	B	.	.
16c	_	.	.	.	.	.	.	.	.
=69	=69	=69	=69	=69	=69	=69	=69	=69	=69
4B	_	1r	.	1GM	.	voice	.	119.963	G:maj
4.r	.	.	.	.	.	.	.	.	.
8B	It's	.	.	.	.	.	.	.	.
8c	been	.	.	.	.	.	.	.	.
8B	a	.	.	.	.	.	.	.	.
=70	=70	=70	=70	=70	=70	=70	=70	=70	=70
2d	hard	1r	.	2GM	newline	voice	.	121.715	G:maj
4.d	day's	.	.	2CM	.	voice	.	122.586	C:maj
16d	night	.	.	.	.	.	A	.	.
16c	_	.	.	.	.	.	.	.	.
=71	=71	=71	=71	=71	=71	=71	=71	=71	=71
8B	_	1r	.	1GM	.	voice	.	123.458	G:maj
2r	.	.	.	.	.	.	.	.	.
8c	I	.	.	.	.	.	.	.	.
8d	should	.	.	.	.	.	.	.	.
8c	be	.	.	.	.	.	.	.	.
=72	=72	=72	=72	=72	=72	=72	=72	=72	=72
8d	slee-	1r	.	1FM	.	voice	.	125.2	F:maj
2f	-pin'	.	.	.	.	.	.	.	.
4d	like	.	.	.	.	.	.	.	.
8c	a	.	.	.	.	.	.	.	.
=73	=73	=73	=73	=73	=73	=73	=73	=73	=73
16d	log	2r	.	1GM	.	voice	B	126.943	G:maj
16c	_	.	.	.	.	.	.	.	.
8B	_	.	.	.	.	.	.	.	.
4.r	.	.	.	.	.	.	.	.	.
.	.	8r	.	.	.	.	.	.	.
8e	But	8c	But	.	.	.	.	.	.
8f	when	8d	when	.	.	.	.	.	.
8f#	I	8d#	I	.	.	.	.	.	.
=74	=74	=74	=74	=74	=74	=74	=74	=74	=74
8g	get	8e	get	1CM	newline	voice	.	128.686	C:maj
8f#	home	8d#	home	.	.	.	.	.	.
8f	to	8d	to	.	.	.	C	.	.
8e	you	8c	you	.	.	.	C	.	.
8r	.	8r	.	.	.	.	.	.	.
8g	I	8e	I	.	.	.	.	.	.
8g	find	8e	find	.	.	.	.	.	.
8g#	the	8e#	the	.	.	.	.	.	.
=75	=75	=75	=75	=75	=75	=75	=75	=75	=75
8a	things	8f#	things	1DM	.	voice	.	130.453	D:maj
8a-	that	8f	that	.	.	.	.	.	.
8g	you	8e	you	.	.	.	C	.	.
8f#	do	8d	do	.	.	.	C	.	.
8r	.	2r	.	.	.	.	.	.	.
8B	will	.	.	.	.	.	.	.	.
8c	make	.	.	.	.	.	.	.	.
8B	me	.	.	.	.	.	.	.	.
=76	=76	=76	=76	=76	=76	=76	=76	=76	=76
8d	feel	1r	.	2GM	.	voice	.	132.221	G:maj
4.G	_	.	.	.	.	.	.	.	.
8B-	al-	.	.	2CM	.	voice	.	133.105	C:maj
4c	_	.	.	.	.	.	.	.	.
[8B-	-right	.	.	.	.	.	A	.	.
=77	=77	=77	=77	=77	=77	=77	=77	=77	=77
8B-]	_	1r	.	1GM	.	voice	.	133.988	G:maj
2r	.	.	.	.	.	.	.	.	.
8B	you	.	.	.	.	.	.	.	.
8c	know	.	.	.	.	.	.	.	.
8B	I	.	.	.	.	.	.	.	.
=78	=78	=78	=78	=78	=78	=78	=78	=78	=78
8d	feel	1r	.	2GM	newline	voice	.	135.756	G:maj
4.G	_	.	.	.	.	.	.	.	.
8B-	al-	.	.	2CM	.	voice	.	136.636	C:maj
4c	_	.	.	.	.	.	.	.	.
[8B-	-right	.	.	.	.	.	A	.	.
=79	=79	=79	=79	=79	=79	=79	=79	=79	=79
8B-]	_	1r	.	1GM	.	voice	.	137.516	G:maj
2r	.	.	.	.	.	.	.	.	.
8B	you	.	.	.	.	.	.	.	.
8c	know	.	.	.	.	.	.	.	.
8B	I	.	.	.	.	.	.	.	.
=80	=80	=80	=80	=80	=80	=80	=80	=80	=80
2d	feel	1r	.	2GM	.	voice	.	139.276	G:maj
4.d	al-	.	.	2CM	.	voice	.	140.157	C:maj
[8d	-right	.	.	.	.	.	A	.	.
=81	=81	=81	=81	=81	=81	=81	=81	=81	=81
*>Letter>D	*>Letter>D	*>Letter>D	*>Letter>D	*>Letter>D	*>Letter>D	*>Letter>D	*>Letter>D	*>Letter>D	*>Letter>D
*>Label>Outro	*>Label>Outro	*>Label>Outro	*>Label>Outro	*>Label>Outro	*>Label>Outro	*>Label>Outro	*>Label>Outro	*>Label>Outro	*>Label>Outro
4d]	_	1r	.	1Dmm	newline	guitar	.	141.037	D:min11
4r	.	.	.	.	.	.	.	.	.
2r	.	.	.	.	.	.	.	.	.
=82	=82	=82	=82	=82	=82	=82	=82	=82	=82
1r	.	1r	.	1Dmm	.	guitar	.	142.789	D:min11
=83	=83	=83	=83	=83	=83	=83	=83	=83	=83
1r	.	1r	.	1Dmm	.	guitar	.	144.541	D:min11
=84	=84	=84	=84	=84	=84	=84	=84	=84	=84
1r	.	1r	.	1Dmm	.	guitar	.	146.293	D:min11
=85	=85	=85	=85	=85	=85	=85	=85	=85	=85
1r	.	1r	.	1Dmm	.	guitar	.	148.045	D:min11
=86	=86	=86	=86	=86	=86	=86	=86	=86	=86
1r	.	1r	.	1Dmm	.	guitar	.	149.797	D:min11
r;	.	r;	.	1r;	.	r	.	151.549	N.C.
r;	.	r;	.	1r;	.	r	.	153.469	N.C.
*-	*-	*-	*-	*-	*-	*-	*-	*-	*-
!!!BillboardChartDate: 1964/09/19
!!!BillboardPeak: 1
!!!BillboardWeeksOnChart: 13
!!!COC: The Beatles
!!!EMD: Section labels should be changed: AABA. -Nat
!!!ENC: Nathaniel Condit-Schultz
!!!EST: Awating manual error checking and editing.
!!!OTL: A Hard Day's Night
!!!RDF**chordsym: original McGill chord annotation + (implied pitch class set, with bass pitch in first position)
!!!RDF**harmony: **recip + pitch class of root + harmonic quality
!!!RDF**leadinstrument: original McGill primary instrumentation annotation
!!!RDF**phrase: newline = linebreak in original McGill transcription
!!!RDF**timestamp: McGill audio timestamp in seconds
!!!RDT: 2017/01/12/
!!!SampleActualRank: 12
!!!SampleID#: 1142
!!!SampleTargetRank: 12
